X: 24928
T: Maid Behind The Bar, The
R: reel
M: 4/4
K: Dmajor
|:DE|FAAB AFED|FAAB A2 de|fBBA Bcde|fdgf edcB|
A3B AFED|B3A A2de|f3e dBB2|AFEF D3:|
|:de|faag fdde|f3g afdf|efga beef|g3a bgeg|
f3a bc' (3d'c'b|afdf e3 g|fBBA Bc (3dcB|AFEF D3:|

